svg/emoji_u1f36a.svg

<svg xmlns="http://www.w3.org/2000/svg" xmlns:xlink="http://www.w3.org/1999/xlink" width="128" height="128"><defs><path d="M108.94 112.23c-8.28 5.98-14.04 10.27-24.06 12.88-9.94 2.59-21.19 1.12-31.24.08-19.65-2.03-34.71-10.77-45.61-27.35-4.18-6.33-6.33-13.55-6.88-21.08-.25-3.36-.22-6.75-.12-10.12.1-3.35-.04-6.93.5-10.25 1.04-6.34 2.55-12.67 4.91-18.65 2.45-6.25 6.27-10.76 10.18-16.09C28.18 5.87 50.86 1.19 69.35 1.46c6.51.09 14.07.67 20.3 2.62 4.91 1.54 9.83 3.94 14.05 6.89 4.37 3.04 8.11 7.34 10.78 11.94 2.54 4.38 4.77 9.26 6.37 14.07.38 1.14.73 2.28 1.07 3.43 2.3 7.99 4.76 17.22 5.06 25.55.64 16.97-3.61 35.86-18.04 46.27z" id="a"/><clipPath id="b"><use xlink:href="#a" overflow="visible"/></clipPath></defs><use xlink:href="#a" width="100%" height="100%" overflow="visible" fill="#eea94d"/><g clip-path="url(#b)" fill="#270e03"><path d="M85.64 3.53c-.28.56-.48 1.27-.59 2.15-.28 2.33-.41 5.08-.04 7.36.24 1.5.62 4.15 2.22 4.81 1.48.6 2.91-.2 4.24-.74 1.44-.59 2.96-1.28 4.49-1.68 2.41-.62 4.68-2.24 6.94-3.28 1.91-.87 1.1-3.32-.28-4.42-.96-.77-2.11-1.39-3.11-2.17-1.07-.85-2.44-1.57-3.68-2.13C94 2.6 92.15 2.26 90.2 1.85c-1.8-.38-3.66-.11-4.56 1.68zM110.04 38.55c-.5-.33-1.12-.54-1.85-.58-1.12-.05-2.48.17-3.58.31-1.52.19-3.57.63-4.89 1.34-1.04.55-1.32.93-1.21 1.99.18 1.97.1 3.8.59 5.75.6 2.43.78 6.71 3.85 7.08 1.94.23 4.35.12 6.24-.25 1.26-.24 3.34-.47 4.4-1.19.78-.53.87-1.46.87-2.37-.01-1.88-.86-3.67-1.32-5.46-.42-1.57-1.04-3.04-1.59-4.55-.31-.87-.8-1.59-1.51-2.07zM53.49 31.1c-1.73-.53-3.85.07-5.61.52-2.85.73-6.23.94-8.86 2.26-1.51.76-1.4 3.83-1.43 5.31-.04 1.48-.14 3.07-.01 4.54.1 1.06.12 2.46.48 3.46.7 1.93 4.08 1.18 5.8 1.19 3.27.02 6.34-.79 9.45-1.7.82-.23 2.12-.42 2.74-1.13.48-.56.51-1.8.6-2.49.22-1.86.24-3.57-.11-5.38-.32-1.67-.03-3.59-1.04-5.08-.55-.8-1.24-1.26-2.01-1.5zM31.48 75.02c-.12-.03-.23-.05-.37-.07-1.03-.13-2.06-.31-3.18-.42-1.17-.12-2.23-.24-3.42-.26-1.71-.02-3.32-.42-4.89.67-.6.4-.87.98-1.14 1.57-1.19 2.53-3.48 6.22-1.48 8.92 2.09 2.83 13.79 3.46 15.21-.02.82-1.98 1.4-4.3 1.46-6.45.02-1.3-.75-3.6-2.19-3.94zM77.32 86.38c.92 2.08 2.03 3.93 3.58 5.58.59.62 1.3 1.37 1.93 1.93.87.76 2.04.87 3.15.97 2.21.22 5.05.31 7.27-.01 1.81-.26 3.78-2.22 4.53-3.88.91-2 2.09-3.5 1.76-5.81-.21-1.42-1.4-2.35-2.14-3.5-.87-1.38-1.62-2.51-2.95-3.53-2.02-1.53-4.53-2.89-7.13-2.37-2.72.54-4.88 2.71-6.82 4.53-1.83 1.71-4.44 3.26-3.18 6.09zM53.13 107.17c-2.48.14-4.94 1.82-6.84 3.42-1.66 1.39-3.05 2.2-2.12 4.6 1.46 3.74 4.37 6.7 7.62 8.75 1.79 1.13 3.16.56 4.96-.52 2.31-1.38 9.7-5.31 6.28-9.03-.94-1.03-1.8-1.99-2.72-3.02-1.09-1.22-2.29-2.16-3.64-3.14-1.13-.84-2.34-1.14-3.54-1.06zM92.23 113.28c-.2-.48-.58-.93-1.17-1.33-2.43-1.61-6.89-.44-8.31 2.12-2.04 3.68 4.86 4.8 7.1 3.58 1.4-.78 3.07-2.66 2.38-4.37zM99.57 104.17c2.19 1.99 8.39 2.29 7.91-1.94-.24-2.11-5.09-2.48-6.61-2.07-1.49.41-2.65 2.79-1.3 4.01zM116.61 89.6c.89-.37 1.58-1.02 1.8-2.01.28-1.3-.49-2.28-1.76-2.6-1.56-.39-4.52-.55-5.66.82-1.02 1.23-.55 2.5.65 3.37 1.19.85 3.39 1.08 4.97.42zM64.14 100.65c1.19.02 2.31-.31 2.87-1.1.89-1.24 1.05-4.14-.68-4.81-2.43-.94-7.95.11-6.46 3.77.51 1.28 2.47 2.1 4.27 2.14zM95.37 67.07c1.16-.03 3.04-.26 3.47-1.53.28-.8.24-2.09-.29-2.79-1.47-1.9-8.07-1.2-7.33 1.94.39 1.73 2.28 2.43 4.15 2.38zM111.5 72.3c2.71.77 6.89-2.14 5.71-4.87-1.46-3.42-9.12-1.05-7.58 3.1.39.98 1.05 1.54 1.87 1.77zM80.31 45.46c3.49-.42 4.35-4.12 1.59-5.35-3.36-1.49-7.77 2.76-4.72 4.82.79.54 2.08.65 3.13.53z"/></g></svg>

<?xml version="1.0" encoding="UTF-8" standalone="no"?>
<!DOCTYPE svg PUBLIC "-//W3C//DTD SVG 1.1//EN" "http://www.w3.org/Graphics/SVG/1.1/DTD/svg11.dtd">
<svg width="100%" height="100%" viewBox="0 0 128 128" version="1.1" xmlns="http://www.w3.org/2000/svg" xmlns:xlink="http://www.w3.org/1999/xlink" xml:space="preserve" xmlns:serif="http://www.serif.com/" style="fill-rule:evenodd;clip-rule:evenodd;stroke-linejoin:round;stroke-miterlimit:2;">
    <path id="a" d="M108.94,112.23C100.66,118.21 94.9,122.5 84.88,125.11C74.94,127.7 63.69,126.23 53.64,125.19C33.99,123.16 18.93,114.42 8.03,97.84C3.85,91.51 1.7,84.29 1.15,76.76C0.9,73.4 0.93,70.01 1.03,66.64C1.13,63.29 0.99,59.71 1.53,56.39C2.57,50.05 4.08,43.72 6.44,37.74C8.89,31.49 12.71,26.98 16.62,21.65C28.18,5.87 50.86,1.19 69.35,1.46C75.86,1.55 83.42,2.13 89.65,4.08C94.56,5.62 99.48,8.02 103.7,10.97C108.07,14.01 111.81,18.31 114.48,22.91C117.02,27.29 119.25,32.17 120.85,36.98C121.23,38.12 121.58,39.26 121.92,40.41C124.22,48.4 126.68,57.63 126.98,65.96C127.62,82.93 123.37,101.82 108.94,112.23Z" style="fill:rgb(255,183,77);fill-rule:nonzero;"/>
    <g>
        <clipPath id="_clip1">
            <path d="M108.94,112.23C100.66,118.21 94.9,122.5 84.88,125.11C74.94,127.7 63.69,126.23 53.64,125.19C33.99,123.16 18.93,114.42 8.03,97.84C3.85,91.51 1.7,84.29 1.15,76.76C0.9,73.4 0.93,70.01 1.03,66.64C1.13,63.29 0.99,59.71 1.53,56.39C2.57,50.05 4.08,43.72 6.44,37.74C8.89,31.49 12.71,26.98 16.62,21.65C28.18,5.87 50.86,1.19 69.35,1.46C75.86,1.55 83.42,2.13 89.65,4.08C94.56,5.62 99.48,8.02 103.7,10.97C108.07,14.01 111.81,18.31 114.48,22.91C117.02,27.29 119.25,32.17 120.85,36.98C121.23,38.12 121.58,39.26 121.92,40.41C124.22,48.4 126.68,57.63 126.98,65.96C127.62,82.93 123.37,101.82 108.94,112.23Z"/>
        </clipPath>
        <g clip-path="url(#_clip1)">
            <path d="M85.64,3.53C85.36,4.09 85.16,4.8 85.05,5.68C84.77,8.01 84.64,10.76 85.01,13.04C85.25,14.54 85.63,17.19 87.23,17.85C88.71,18.45 90.14,17.65 91.47,17.11C92.91,16.52 94.43,15.83 95.96,15.43C98.37,14.81 100.64,13.19 102.9,12.15C104.81,11.28 104,8.83 102.62,7.73C101.66,6.96 100.51,6.34 99.51,5.56C98.44,4.71 97.07,3.99 95.83,3.43C94,2.6 92.15,2.26 90.2,1.85C88.4,1.47 86.54,1.74 85.64,3.53ZM110.04,38.55C109.54,38.22 108.92,38.01 108.19,37.97C107.07,37.92 105.71,38.14 104.61,38.28C103.09,38.47 101.04,38.91 99.72,39.62C98.68,40.17 98.4,40.55 98.51,41.61C98.69,43.58 98.61,45.41 99.1,47.36C99.7,49.79 99.88,54.07 102.95,54.44C104.89,54.67 107.3,54.56 109.19,54.19C110.45,53.95 112.53,53.72 113.59,53C114.37,52.47 114.46,51.54 114.46,50.63C114.45,48.75 113.6,46.96 113.14,45.17C112.72,43.6 112.1,42.13 111.55,40.62C111.24,39.75 110.75,39.03 110.04,38.55ZM53.49,31.1C51.76,30.57 49.64,31.17 47.88,31.62C45.03,32.35 41.65,32.56 39.02,33.88C37.51,34.64 37.62,37.71 37.59,39.19C37.55,40.67 37.45,42.26 37.58,43.73C37.68,44.79 37.7,46.19 38.06,47.19C38.76,49.12 42.14,48.37 43.86,48.38C47.13,48.4 50.2,47.59 53.31,46.68C54.13,46.45 55.43,46.26 56.05,45.55C56.53,44.99 56.56,43.75 56.65,43.06C56.87,41.2 56.89,39.49 56.54,37.68C56.22,36.01 56.51,34.09 55.5,32.6C54.95,31.8 54.26,31.34 53.49,31.1ZM31.48,75.02C31.36,74.99 31.25,74.97 31.11,74.95C30.08,74.82 29.05,74.64 27.93,74.53C26.76,74.41 25.7,74.29 24.51,74.27C22.8,74.25 21.19,73.85 19.62,74.94C19.02,75.34 18.75,75.92 18.48,76.51C17.29,79.04 15,82.73 17,85.43C19.09,88.26 30.79,88.89 32.21,85.41C33.03,83.43 33.61,81.11 33.67,78.96C33.69,77.66 32.92,75.36 31.48,75.02ZM77.32,86.38C78.24,88.46 79.35,90.31 80.9,91.96C81.49,92.58 82.2,93.33 82.83,93.89C83.7,94.65 84.87,94.76 85.98,94.86C88.19,95.08 91.03,95.17 93.25,94.85C95.06,94.59 97.03,92.63 97.78,90.97C98.69,88.97 99.87,87.47 99.54,85.16C99.33,83.74 98.14,82.81 97.4,81.66C96.53,80.28 95.78,79.15 94.45,78.13C92.43,76.6 89.92,75.24 87.32,75.76C84.6,76.3 82.44,78.47 80.5,80.29C78.67,82 76.06,83.55 77.32,86.38ZM53.13,107.17C50.65,107.31 48.19,108.99 46.29,110.59C44.63,111.98 43.24,112.79 44.17,115.19C45.63,118.93 48.54,121.89 51.79,123.94C53.58,125.07 54.95,124.5 56.75,123.42C59.06,122.04 66.45,118.11 63.03,114.39C62.09,113.36 61.23,112.4 60.31,111.37C59.22,110.15 58.02,109.21 56.67,108.23C55.54,107.39 54.33,107.09 53.13,107.17ZM92.23,113.28C92.03,112.8 91.65,112.35 91.06,111.95C88.63,110.34 84.17,111.51 82.75,114.07C80.71,117.75 87.61,118.87 89.85,117.65C91.25,116.87 92.92,114.99 92.23,113.28ZM99.57,104.17C101.76,106.16 107.96,106.46 107.48,102.23C107.24,100.12 102.39,99.75 100.87,100.16C99.38,100.57 98.22,102.95 99.57,104.17ZM116.61,89.6C117.5,89.23 118.19,88.58 118.41,87.59C118.69,86.29 117.92,85.31 116.65,84.99C115.09,84.6 112.13,84.44 110.99,85.81C109.97,87.04 110.44,88.31 111.64,89.18C112.83,90.03 115.03,90.26 116.61,89.6ZM64.14,100.65C65.33,100.67 66.45,100.34 67.01,99.55C67.9,98.31 68.06,95.41 66.33,94.74C63.9,93.8 58.38,94.85 59.87,98.51C60.38,99.79 62.34,100.61 64.14,100.65ZM95.37,67.07C96.53,67.04 98.41,66.81 98.84,65.54C99.12,64.74 99.08,63.45 98.55,62.75C97.08,60.85 90.48,61.55 91.22,64.69C91.61,66.42 93.5,67.12 95.37,67.07ZM111.5,72.3C114.21,73.07 118.39,70.16 117.21,67.43C115.75,64.01 108.09,66.38 109.63,70.53C110.02,71.51 110.68,72.07 111.5,72.3ZM80.31,45.46C83.8,45.04 84.66,41.34 81.9,40.11C78.54,38.62 74.13,42.87 77.18,44.93C77.97,45.47 79.26,45.58 80.31,45.46Z" style="fill:rgb(93,64,55);fill-rule:nonzero;"/>
        </g>
    </g>
</svg>
